!! 00000] TT[WS
!!!OTL: Hai tai
!!!ARE: Asia, China,ÿShanxi Linxian
!! Ethnic Group: Han
!! WI, 214 (1)
!!!SCT: J0254
!!!YEM: Copyright 1995, estate of Helmut Schaffrath.
**kern
*ICvox
*Ivox
*M2/4
*k[f#]
*G:
{8gg
16ff#
16ee
8dd
16b
16dd
=1
16ee
16gg
16ff#
16ee
8.dd
16b
=2
8gg
16ff#
16ee
8b
16dd
16ee
=3
16g
16f#
16e
16g
4a}
=4
{16a
16b
8dd
16b
16gg
16ee
16dd
=5
16b
16a
16b
16dd
8.g
16e
=6
16a
16a
16a
16b
16dd
16g
16f#
16e
=7
2d}
==
!!!AGN: Xiaodiao. Fengsuge, Jiating shenghuo
!!!ONB: ESAC (Essen Associative Code) Database: CHINA
!!!AMT: simple duple
!!!AIN: vox
!!!EED: Helmut Schaffrath
!!!EEV: 1.0
*-
